docsrc/pics/logo_text.svg

<?xml version="1.0" encoding="utf-8"?>
<!-- Generator: Adobe Illustrator 21.0.0, SVG Export Plug-In . SVG Version: 6.00 Build 0)  -->
<svg version="1.1" id="Layer_1" xmlns="http://www.w3.org/2000/svg" xmlns:xlink="http://www.w3.org/1999/xlink" x="0px" y="0px"
	 viewBox="0 0 2649.1 457.1" style="enable-background:new 0 0 2649.1 457.1;" xml:space="preserve">
<style type="text/css">
	.st0{fill:none;stroke:#0E5477;stroke-width:6;stroke-miterlimit:10;}
	.st1{fill:#0E5477;}
	.st2{fill:#046D8B;}
</style>
<g>
	<line class="st0" x1="416.4" y1="149" x2="469.7" y2="101.4"/>
	<line class="st0" x1="512.6" y1="178.4" x2="469.7" y2="101.4"/>
	<line class="st0" x1="542.1" y1="90.9" x2="469.7" y2="101.4"/>
	<line class="st0" x1="555.2" y1="33.2" x2="613.1" y2="111.4"/>
	<line class="st0" x1="555.2" y1="33.2" x2="492.7" y2="49.2"/>
	<line class="st0" x1="625.7" y1="14.3" x2="696.3" y2="44.1"/>
	<line class="st0" x1="613.1" y1="111.4" x2="696.3" y2="44.1"/>
	<line class="st0" x1="768.9" y1="100.1" x2="678" y2="140.7"/>
	<line class="st0" x1="792.3" y1="191" x2="768.9" y2="100.1"/>
	<line class="st0" x1="817.1" y1="273.7" x2="792.3" y2="191"/>
	<line class="st0" x1="713.1" y1="273.7" x2="792.3" y2="191"/>
	<line class="st0" x1="793.5" y1="344.7" x2="713.1" y2="273.7"/>
	<line class="st0" x1="716.5" y1="381.8" x2="616.9" y2="346.7"/>
	<line class="st0" x1="713.1" y1="273.7" x2="616.9" y2="346.7"/>
	<line class="st0" x1="638.9" y1="442.8" x2="716.5" y2="381.8"/>
	<line class="st0" x1="558.3" y1="432.9" x2="616.9" y2="346.7"/>
	<line class="st0" x1="490" y1="393" x2="558.3" y2="432.9"/>
	<line class="st0" x1="439.4" y1="358.9" x2="447.8" y2="283.9"/>
	<line class="st0" x1="539.2" y1="307.1" x2="447.8" y2="283.9"/>
	<line class="st0" x1="512.6" y1="178.4" x2="447.8" y2="283.9"/>
	<line class="st0" x1="445.4" y1="202.7" x2="447.8" y2="283.9"/>
	<line class="st0" x1="395.8" y1="228.8" x2="445.4" y2="202.7"/>
</g>
<g>
	
		<ellipse transform="matrix(0.3887 -0.9214 0.9214 0.3887 86.1991 893.5444)" class="st1" cx="716.5" cy="381.8" rx="44.8" ry="44.8"/>
	
		<ellipse transform="matrix(0.3887 -0.9214 0.9214 0.3887 377.8401 769.6616)" class="st1" cx="768.9" cy="100.1" rx="25.9" ry="25.9"/>
	
		<ellipse transform="matrix(0.3887 -0.9214 0.9214 0.3887 385.0443 668.4984)" class="st1" cx="696.3" cy="44.1" rx="26.1" ry="25.9"/>
	
		<ellipse transform="matrix(0.3887 -0.9214 0.9214 0.3887 272.1335 633.0518)" class="st1" cx="613.1" cy="111.4" rx="25.9" ry="25.9"/>
	
		<ellipse transform="matrix(0.3887 -0.9214 0.9214 0.3887 308.8548 531.772)" class="st1" cx="555.2" cy="33.1" rx="25.9" ry="25.9"/>
	
		<ellipse transform="matrix(0.3887 -0.9214 0.9214 0.3887 -62.5499 691.7851)" class="st1" cx="490.1" cy="393" rx="25.9" ry="25.9"/>
	
		<ellipse transform="matrix(0.3887 -0.9214 0.9214 0.3887 193.7409 494.742)" class="st1" cx="469.7" cy="101.4" rx="25.9" ry="25.9"/>
	
		<ellipse transform="matrix(0.3887 -0.9214 0.9214 0.3887 57.7076 780.3266)" class="st1" cx="616.9" cy="346.7" rx="25.9" ry="25.9"/>
	
		<ellipse transform="matrix(0.3887 -0.9214 0.9214 0.3887 184.4529 823.8356)" class="st1" cx="713.1" cy="272.9" rx="19.1" ry="19.1"/>
	
		<ellipse transform="matrix(0.3887 -0.9214 0.9214 0.3887 247.3863 920.2004)" class="st1" cx="817.2" cy="273.7" rx="19.1" ry="19.1"/>
	
		<ellipse transform="matrix(0.3887 -0.9214 0.9214 0.3887 284.8233 710.7236)" class="st1" cx="678" cy="140.7" rx="19.1" ry="19.1"/>
	
		<ellipse transform="matrix(0.3887 -0.9214 0.9214 0.3887 149.0052 581.389)" class="st1" cx="512.6" cy="178.4" rx="19.1" ry="19.1"/>
	
		<ellipse transform="matrix(0.3887 -0.9214 0.9214 0.3887 247.6403 555.0571)" class="st1" cx="542.1" cy="90.9" rx="19.1" ry="19.1"/>
	
		<ellipse transform="matrix(0.3887 -0.9214 0.9214 0.3887 117.2319 474.821)" class="st1" cx="416.4" cy="149.1" rx="19.1" ry="19.1"/>
	
		<ellipse transform="matrix(0.3887 -0.9214 0.9214 0.3887 85.4544 534.2693)" class="st1" cx="445.4" cy="202.7" rx="19.1" ry="19.1"/>
	
		<ellipse transform="matrix(0.3887 -0.9214 0.9214 0.3887 -57.5365 779.0705)" class="st1" cx="558.3" cy="432.9" rx="19.1" ry="19.1"/>
	
		<ellipse transform="matrix(0.3887 -0.9214 0.9214 0.3887 -17.3804 859.4141)" class="st1" cx="639" cy="442.8" rx="14.3" ry="14.3"/>
	
		<ellipse transform="matrix(0.3887 -0.9214 0.9214 0.3887 369.3158 585.2858)" class="st1" cx="625.7" cy="14.3" rx="14.3" ry="14.3"/>
	
		<ellipse transform="matrix(0.3887 -0.9214 0.9214 0.3887 -62.0754 624.2258)" class="st1" cx="439.4" cy="358.9" rx="14.3" ry="14.3"/>
	
		<ellipse transform="matrix(0.3887 -0.9214 0.9214 0.3887 255.8617 484.043)" class="st1" cx="492.7" cy="49.2" rx="14.3" ry="14.3"/>
	
		<ellipse transform="matrix(0.3887 -0.9214 0.9214 0.3887 31.1521 504.5097)" class="st1" cx="395.8" cy="228.8" rx="14.3" ry="14.3"/>
	
		<ellipse transform="matrix(0.3887 -0.9214 0.9214 0.3887 12.1646 586.1812)" class="st1" cx="447.8" cy="283.9" rx="44.8" ry="44.8"/>
	
		<ellipse transform="matrix(0.3887 -0.9214 0.9214 0.3887 308.3344 846.7505)" class="st1" cx="792.3" cy="191" rx="44.8" ry="44.8"/>
	
		<ellipse transform="matrix(0.3887 -0.9214 0.9214 0.3887 167.5191 941.9153)" class="st1" cx="793.6" cy="344.7" rx="14.3" ry="14.3"/>
	
		<ellipse transform="matrix(0.3887 -0.9214 0.9214 0.3887 46.706 684.5549)" class="st1" cx="539.2" cy="307.1" rx="14.3" ry="14.3"/>
</g>
<g>
	<path class="st2" d="M0,457.1V0h170.1c29.9,0,52.8,1.5,68.6,4.4c22.2,3.7,40.7,10.9,55.7,21.4s27,25.2,36.1,44.1
		s13.7,39.7,13.7,62.4c0,38.9-12.2,71.8-36.6,98.7s-68.5,40.4-132.3,40.4H59.7v185.8H0V457.1z M59.7,217.3h116.6
		c38.6,0,65.9-7.3,82.1-21.8c16.2-14.5,24.3-35,24.3-61.4c0-19.1-4.8-35.5-14.3-49.1s-22.1-22.6-37.7-27
		c-10.1-2.7-28.6-4.1-55.7-4.1H59.7V217.3z"/>
	<path class="st2" d="M911.2,457.1V0h200c40.2,0,70.8,4.1,91.7,12.3c20.9,8.2,37.6,22.7,50.1,43.5s18.8,43.8,18.8,68.9
		c0,32.4-10.4,59.8-31.1,82s-52.7,36.4-96,42.4c15.8,7.7,27.8,15.3,36,22.8c17.4,16.2,33.9,36.5,49.5,60.8l78.4,124.4h-75.1
		L1174,362c-17.4-27.4-31.8-48.4-43.1-63c-11.3-14.5-21.4-24.7-30.3-30.6c-8.9-5.8-18-9.9-27.2-12.2c-6.8-1.5-17.8-2.2-33.2-2.2H971
		v203h-59.8V457.1z M970.9,201.8h128.3c27.3,0,48.6-2.9,64-8.6c15.4-5.7,27.1-14.9,35.1-27.4c8-12.6,12-26.2,12-41
		c0-21.6-7.7-39.4-23.2-53.3s-39.9-20.9-73.4-20.9H970.9V201.8z"/>
	<path class="st2" d="M1366.6,457.1V0h326.1v53.9h-266.4v140h249.5v53.6h-249.5v155.6h276.9V457h-336.6V457.1z"/>
	<path class="st1" d="M1783.7,457.1V0h89.8l106.8,323.7c9.8,30.1,17,52.7,21.5,67.7c5.1-16.6,13.1-41.1,24-73.3L2133.8,0h80.3v457.1
		h-57.5V74.5l-131.1,382.6h-53.8L1841.3,68v389.2h-57.6L1783.7,457.1L1783.7,457.1z"/>
	<path class="st1" d="M2290.1,307.6l56.3-4.8c2.7,22.1,8.9,40.3,18.6,54.4c9.7,14.2,24.9,25.6,45.4,34.4
		c20.5,8.7,43.6,13.1,69.2,13.1c22.8,0,42.9-3.3,60.3-10c17.4-6.6,30.4-15.7,38.9-27.3c8.5-11.6,12.8-24.2,12.8-37.8
		c0-13.9-4.1-26-12.3-36.3c-8.2-10.4-21.7-19-40.6-26.1c-12.1-4.6-38.9-11.8-80.3-21.6c-41.4-9.7-70.5-18.9-87.1-27.6
		c-21.5-11.1-37.6-24.8-48.1-41.2c-10.6-16.4-15.8-34.7-15.8-55c0-22.3,6.5-43.2,19.4-62.6s31.8-34.1,56.6-44.2
		c24.7-10,52.3-15,82.7-15c33.4,0,62.9,5.3,88.4,15.8c25.5,10.6,45.2,26.1,58.9,46.6s21.1,43.7,22.2,69.7l-57.2,4.2
		c-3.1-27.9-13.5-49-31.2-63.3s-43.9-21.4-78.6-21.4c-36.1,0-62.4,6.5-78.9,19.4c-16.5,13-24.8,28.6-24.8,46.9
		c0,15.9,5.8,28.9,17.5,39.2c11.5,10.3,41.5,20.8,90,31.5c48.5,10.8,81.8,20.2,99.8,28.2c26.3,11.9,45.6,26.9,58.1,45.1
		s18.8,39.2,18.8,62.9c0,23.5-6.9,45.7-20.6,66.5c-13.7,20.8-33.5,37-59.2,48.5c-25.7,11.6-54.7,17.3-86.9,17.3
		c-40.8,0-75-5.8-102.6-17.5s-49.2-29.2-64.9-52.6C2299.2,363.6,2290.9,337.1,2290.1,307.6z"/>
</g>
</svg>

<?xml version="1.0" encoding="UTF-8" standalone="no"?>
<!DOCTYPE svg PUBLIC "-//W3C//DTD SVG 1.1//EN" "http://www.w3.org/Graphics/SVG/1.1/DTD/svg11.dtd">
<svg width="100%" height="100%" viewBox="0 0 2650 458" version="1.1" xmlns="http://www.w3.org/2000/svg" xmlns:xlink="http://www.w3.org/1999/xlink" xml:space="preserve" xmlns:serif="http://www.serif.com/" style="fill-rule:evenodd;clip-rule:evenodd;stroke-miterlimit:10;">
    <g>
        <path d="M416.4,149L469.7,101.4" style="fill:none;fill-rule:nonzero;stroke:rgb(30,129,185);stroke-width:6px;"/>
        <path d="M512.6,178.4L469.7,101.4" style="fill:none;fill-rule:nonzero;stroke:rgb(30,129,185);stroke-width:6px;"/>
        <path d="M542.1,90.9L469.7,101.4" style="fill:none;fill-rule:nonzero;stroke:rgb(30,129,185);stroke-width:6px;"/>
        <path d="M555.2,33.2L613.1,111.4" style="fill:none;fill-rule:nonzero;stroke:rgb(30,129,185);stroke-width:6px;"/>
        <path d="M555.2,33.2L492.7,49.2" style="fill:none;fill-rule:nonzero;stroke:rgb(30,129,185);stroke-width:6px;"/>
        <path d="M625.7,14.3L696.3,44.1" style="fill:none;fill-rule:nonzero;stroke:rgb(30,129,185);stroke-width:6px;"/>
        <path d="M613.1,111.4L696.3,44.1" style="fill:none;fill-rule:nonzero;stroke:rgb(30,129,185);stroke-width:6px;"/>
        <path d="M768.9,100.1L678,140.7" style="fill:none;fill-rule:nonzero;stroke:rgb(30,129,185);stroke-width:6px;"/>
        <path d="M792.3,191L768.9,100.1" style="fill:none;fill-rule:nonzero;stroke:rgb(30,129,185);stroke-width:6px;"/>
        <path d="M817.1,273.7L792.3,191" style="fill:none;fill-rule:nonzero;stroke:rgb(30,129,185);stroke-width:6px;"/>
        <path d="M713.1,273.7L792.3,191" style="fill:none;fill-rule:nonzero;stroke:rgb(30,129,185);stroke-width:6px;"/>
        <path d="M793.5,344.7L713.1,273.7" style="fill:none;fill-rule:nonzero;stroke:rgb(30,129,185);stroke-width:6px;"/>
        <path d="M716.5,381.8L616.9,346.7" style="fill:none;fill-rule:nonzero;stroke:rgb(30,129,185);stroke-width:6px;"/>
        <path d="M713.1,273.7L616.9,346.7" style="fill:none;fill-rule:nonzero;stroke:rgb(30,129,185);stroke-width:6px;"/>
        <path d="M638.9,442.8L716.5,381.8" style="fill:none;fill-rule:nonzero;stroke:rgb(30,129,185);stroke-width:6px;"/>
        <path d="M558.3,432.9L616.9,346.7" style="fill:none;fill-rule:nonzero;stroke:rgb(30,129,185);stroke-width:6px;"/>
        <path d="M490,393L558.3,432.9" style="fill:none;fill-rule:nonzero;stroke:rgb(30,129,185);stroke-width:6px;"/>
        <path d="M439.4,358.9L447.8,283.9" style="fill:none;fill-rule:nonzero;stroke:rgb(30,129,185);stroke-width:6px;"/>
        <path d="M539.2,307.1L447.8,283.9" style="fill:none;fill-rule:nonzero;stroke:rgb(30,129,185);stroke-width:6px;"/>
        <path d="M512.6,178.4L447.8,283.9" style="fill:none;fill-rule:nonzero;stroke:rgb(30,129,185);stroke-width:6px;"/>
        <path d="M445.4,202.7L447.8,283.9" style="fill:none;fill-rule:nonzero;stroke:rgb(30,129,185);stroke-width:6px;"/>
        <path d="M395.8,228.8L445.4,202.7" style="fill:none;fill-rule:nonzero;stroke:rgb(30,129,185);stroke-width:6px;"/>
    </g>
    <g>
        <g transform="matrix(0.3887,-0.9214,0.9214,0.3887,86.1991,893.544)">
            <circle cx="716.5" cy="381.8" r="44.8" style="fill:rgb(30,129,185);"/>
        </g>
        <g transform="matrix(0.3887,-0.9214,0.9214,0.3887,377.84,769.662)">
            <circle cx="768.9" cy="100.1" r="25.9" style="fill:rgb(30,129,185);"/>
        </g>
        <g transform="matrix(0.3887,-0.9214,0.9214,0.3887,385.044,668.498)">
            <ellipse cx="696.3" cy="44.1" rx="26.1" ry="25.9" style="fill:rgb(30,129,185);"/>
        </g>
        <g transform="matrix(0.3887,-0.9214,0.9214,0.3887,272.134,633.052)">
            <circle cx="613.1" cy="111.4" r="25.9" style="fill:rgb(30,129,185);"/>
        </g>
        <g transform="matrix(0.3887,-0.9214,0.9214,0.3887,308.855,531.772)">
            <circle cx="555.2" cy="33.1" r="25.9" style="fill:rgb(30,129,185);"/>
        </g>
        <g transform="matrix(0.3887,-0.9214,0.9214,0.3887,-62.5499,691.785)">
            <circle cx="490.1" cy="393" r="25.9" style="fill:rgb(30,129,185);"/>
        </g>
        <g transform="matrix(0.3887,-0.9214,0.9214,0.3887,193.741,494.742)">
            <circle cx="469.7" cy="101.4" r="25.9" style="fill:rgb(30,129,185);"/>
        </g>
        <g transform="matrix(0.3887,-0.9214,0.9214,0.3887,57.7076,780.327)">
            <circle cx="616.9" cy="346.7" r="25.9" style="fill:rgb(30,129,185);"/>
        </g>
        <g transform="matrix(0.3887,-0.9214,0.9214,0.3887,184.453,823.836)">
            <circle cx="713.1" cy="272.9" r="19.1" style="fill:rgb(30,129,185);"/>
        </g>
        <g transform="matrix(0.3887,-0.9214,0.9214,0.3887,247.386,920.2)">
            <circle cx="817.2" cy="273.7" r="19.1" style="fill:rgb(30,129,185);"/>
        </g>
        <g transform="matrix(0.3887,-0.9214,0.9214,0.3887,284.823,710.724)">
            <circle cx="678" cy="140.7" r="19.1" style="fill:rgb(30,129,185);"/>
        </g>
        <g transform="matrix(0.3887,-0.9214,0.9214,0.3887,149.005,581.389)">
            <circle cx="512.6" cy="178.4" r="19.1" style="fill:rgb(30,129,185);"/>
        </g>
        <g transform="matrix(0.3887,-0.9214,0.9214,0.3887,247.64,555.057)">
            <circle cx="542.1" cy="90.9" r="19.1" style="fill:rgb(30,129,185);"/>
        </g>
        <g transform="matrix(0.3887,-0.9214,0.9214,0.3887,117.232,474.821)">
            <circle cx="416.4" cy="149.1" r="19.1" style="fill:rgb(30,129,185);"/>
        </g>
        <g transform="matrix(0.3887,-0.9214,0.9214,0.3887,85.4544,534.269)">
            <circle cx="445.4" cy="202.7" r="19.1" style="fill:rgb(30,129,185);"/>
        </g>
        <g transform="matrix(0.3887,-0.9214,0.9214,0.3887,-57.5365,779.071)">
            <circle cx="558.3" cy="432.9" r="19.1" style="fill:rgb(30,129,185);"/>
        </g>
        <g transform="matrix(0.3887,-0.9214,0.9214,0.3887,-17.3804,859.414)">
            <circle cx="639" cy="442.8" r="14.3" style="fill:rgb(30,129,185);"/>
        </g>
        <g transform="matrix(0.3887,-0.9214,0.9214,0.3887,369.316,585.286)">
            <circle cx="625.7" cy="14.3" r="14.3" style="fill:rgb(30,129,185);"/>
        </g>
        <g transform="matrix(0.3887,-0.9214,0.9214,0.3887,-62.0754,624.226)">
            <circle cx="439.4" cy="358.9" r="14.3" style="fill:rgb(30,129,185);"/>
        </g>
        <g transform="matrix(0.3887,-0.9214,0.9214,0.3887,255.862,484.043)">
            <circle cx="492.7" cy="49.2" r="14.3" style="fill:rgb(30,129,185);"/>
        </g>
        <g transform="matrix(0.3887,-0.9214,0.9214,0.3887,31.1521,504.51)">
            <circle cx="395.8" cy="228.8" r="14.3" style="fill:rgb(30,129,185);"/>
        </g>
        <g transform="matrix(0.3887,-0.9214,0.9214,0.3887,12.1646,586.181)">
            <circle cx="447.8" cy="283.9" r="44.8" style="fill:rgb(30,129,185);"/>
        </g>
        <g transform="matrix(0.3887,-0.9214,0.9214,0.3887,308.334,846.75)">
            <circle cx="792.3" cy="191" r="44.8" style="fill:rgb(30,129,185);"/>
        </g>
        <g transform="matrix(0.3887,-0.9214,0.9214,0.3887,167.519,941.915)">
            <circle cx="793.6" cy="344.7" r="14.3" style="fill:rgb(30,129,185);"/>
        </g>
        <g transform="matrix(0.3887,-0.9214,0.9214,0.3887,46.706,684.555)">
            <circle cx="539.2" cy="307.1" r="14.3" style="fill:rgb(30,129,185);"/>
        </g>
    </g>
    <g>
        <path d="M0,457.2L0,0L170.1,0C200,0 222.9,1.5 238.7,4.4C260.9,8.1 279.4,15.3 294.4,25.8C309.4,36.3 321.4,51 330.5,69.9C339.6,88.8 344.2,109.6 344.2,132.3C344.2,171.2 332,204.1 307.6,231C283.2,257.9 239.1,271.4 175.3,271.4L59.7,271.4L59.7,457.2L0,457.2ZM59.7,217.3L176.3,217.3C214.9,217.3 242.2,210 258.4,195.5C274.6,181 282.7,160.5 282.7,134.1C282.7,115 277.9,98.6 268.4,85C258.9,71.4 246.3,62.4 230.7,58C220.6,55.3 202.1,53.9 175,53.9L59.7,53.9L59.7,217.3Z" style="fill:rgb(11,72,107);fill-rule:nonzero;"/>
        <path d="M911.2,457.1L911.2,0L1111.2,0C1151.4,0 1182,4.1 1202.9,12.3C1223.8,20.5 1240.5,35 1253,55.8C1265.5,76.6 1271.8,99.6 1271.8,124.7C1271.8,157.1 1261.4,184.5 1240.7,206.7C1220,228.9 1188,243.1 1144.7,249.1C1160.5,256.8 1172.5,264.4 1180.7,271.9C1198.1,288.1 1214.6,308.4 1230.2,332.7L1308.6,457.1L1233.5,457.1L1174,362C1156.6,334.6 1142.2,313.6 1130.9,299C1119.6,284.5 1109.5,274.3 1100.6,268.4C1091.7,262.6 1082.6,258.5 1073.4,256.2C1066.6,254.7 1055.6,254 1040.2,254L971,254L971,457L911.2,457L911.2,457.1ZM970.9,201.8L1099.2,201.8C1126.5,201.8 1147.8,198.9 1163.2,193.2C1178.6,187.5 1190.3,178.3 1198.3,165.8C1206.3,153.2 1210.3,139.6 1210.3,124.8C1210.3,103.2 1202.6,85.4 1187.1,71.5C1171.6,57.6 1147.2,50.6 1113.7,50.6L970.9,50.6L970.9,201.8Z" style="fill:rgb(11,72,107);fill-rule:nonzero;"/>
        <path d="M1366.6,457.1L1366.6,0L1692.7,0L1692.7,53.9L1426.3,53.9L1426.3,193.9L1675.8,193.9L1675.8,247.5L1426.3,247.5L1426.3,403.1L1703.2,403.1L1703.2,457L1366.6,457L1366.6,457.1Z" style="fill:rgb(11,72,107);fill-rule:nonzero;"/>
        <path d="M1783.7,457.2L1783.7,0L1873.5,0L1980.3,323.7C1990.1,353.8 1997.3,376.4 2001.8,391.4C2006.9,374.8 2014.9,350.3 2025.8,318.1L2133.8,0L2214.1,0L2214.1,457.1L2156.6,457.1L2156.6,74.5L2025.5,457.1L1971.7,457.1L1841.3,68L1841.3,457.2L1783.7,457.2Z" style="fill:rgb(30,129,185);fill-rule:nonzero;"/>
        <path d="M2290.1,307.6L2346.4,302.8C2349.1,324.9 2355.3,343.1 2365,357.2C2374.7,371.4 2389.9,382.8 2410.4,391.6C2430.9,400.3 2454,404.7 2479.6,404.7C2502.4,404.7 2522.5,401.4 2539.9,394.7C2557.3,388.1 2570.3,379 2578.8,367.4C2587.3,355.8 2591.6,343.2 2591.6,329.6C2591.6,315.7 2587.5,303.6 2579.3,293.3C2571.1,282.9 2557.6,274.3 2538.7,267.2C2526.6,262.6 2499.8,255.4 2458.4,245.6C2417,235.9 2387.9,226.7 2371.3,218C2349.8,206.9 2333.7,193.2 2323.2,176.8C2312.6,160.4 2307.4,142.1 2307.4,121.8C2307.4,99.5 2313.9,78.6 2326.8,59.2C2339.7,39.8 2358.6,25.1 2383.4,15C2408.1,5 2435.7,-0 2466.1,-0C2499.5,-0 2529,5.3 2554.5,15.8C2580,26.4 2599.7,41.9 2613.4,62.4C2627.1,82.9 2634.5,106.1 2635.6,132.1L2578.4,136.3C2575.3,108.4 2564.9,87.3 2547.2,73C2529.5,58.7 2503.3,51.6 2468.6,51.6C2432.5,51.6 2406.2,58.1 2389.7,71C2373.2,84 2364.9,99.6 2364.9,117.9C2364.9,133.8 2370.7,146.8 2382.4,157.1C2393.9,167.4 2423.9,177.9 2472.4,188.6C2520.9,199.4 2554.2,208.8 2572.2,216.8C2598.5,228.7 2617.8,243.7 2630.3,261.9C2642.8,280.1 2649.1,301.1 2649.1,324.8C2649.1,348.3 2642.2,370.5 2628.5,391.3C2614.8,412.1 2595,428.3 2569.3,439.8C2543.6,451.4 2514.6,457.1 2482.4,457.1C2441.6,457.1 2407.4,451.3 2379.8,439.6C2352.2,427.9 2330.6,410.4 2314.9,387C2299.2,363.6 2290.9,337.1 2290.1,307.6Z" style="fill:rgb(30,129,185);fill-rule:nonzero;"/>
    </g>
</svg>
